X:61
T:Chaz Nous Me Mariderou
M:3/8
L:1/8
N:Mouvt de Bourre
N:La Bourre 4th edition 1929, page 65
Z:Steve Mansfield www.lesession.co.uk May 2012
K:Gm
G | B/ B/ B A | G G G | B/ B/ c c |
d2 d | B/ B/ B A | G G G | B/ B/ c c |
d2 d | d/ d/ d d | (dd) d | c/ c/ c B |
A d d | d d/ d/ d | B B/ B/ B/ A/ | G D D | !fermata! G3 |]
<end>
<start>
